X:85
T:Midnight on the Water
R:waltz
C:Luke Thomasson
Z: from The Waltz Book
Z:Added by alf.warnock@nrc.ca
M:3/4
L:1/8
K:D
A,/2 DE|:F4F2|F4FE|F2A3B|AF D2 D<E|
F2d2B2|A3DED|FBAFED|[1 D3 A,DE:|[2 D3 ABc|
|:d4-dd|dcBABc|d3BAF|D4d2|
e4ef|e2d2e2|f3afe|dcBABc|
d4de|d2c2B2|A3BAG|FEDA,DE|
F2d2B2|A3DED|FBAFED|[1 D3 ABc:|[2 D3-D3|
